svg/fluentui-system-icons/ic_fluent_circle_eraser_20_filled.svg

<svg width="20" height="20" viewBox="0 0 20 20" fill="none" xmlns="http://www.w3.org/2000/svg">
<path d="M8.73104 17.1738C8.49882 16.9416 8.31461 16.666 8.18894 16.3626C8.06326 16.0593 7.99857 15.7341 7.99857 15.4058C7.99857 15.0774 8.06326 14.7523 8.18894 14.4489C8.31461 14.1455 8.49882 13.8699 8.73104 13.6378L13.631 8.73776C13.8632 8.50554 14.1388 8.32133 14.4422 8.19565C14.7455 8.06998 15.0707 8.00529 15.399 8.00529C15.7274 8.00529 16.0525 8.06998 16.3559 8.19565C16.6593 8.32133 16.9349 8.50554 17.167 8.73776L17.967 9.53776C17.8785 7.99815 17.3465 6.51702 16.4353 5.27287C15.5241 4.02872 14.2724 3.07467 12.8313 2.52569C11.3902 1.97671 9.82104 1.85624 8.313 2.17879C6.80496 2.50135 5.42238 3.25317 4.33192 4.34364C3.24145 5.4341 2.48963 6.81668 2.16708 8.32472C1.84452 9.83276 1.96499 11.4019 2.51397 12.843C3.06295 14.2842 4.01701 15.5358 5.26115 16.447C6.5053 17.3582 7.98643 17.8902 9.52604 17.9788L8.73104 17.1738ZM16.468 9.43976L18.563 11.5398C18.7024 11.6791 18.813 11.8445 18.8884 12.0265C18.9639 12.2086 19.0027 12.4037 19.0027 12.6008C19.0027 12.7978 18.9639 12.993 18.8884 13.175C18.813 13.3571 18.7024 13.5225 18.563 13.6618L14.963 17.2618L10.747 13.0448L14.347 9.44476C14.4863 9.30537 14.6517 9.19479 14.8338 9.11935C15.0158 9.04391 15.211 9.00508 15.408 9.00508C15.6051 9.00508 15.8002 9.04391 15.9823 9.11935C16.1643 9.19479 16.3297 9.30537 16.469 9.44476L16.468 9.43976ZM14.256 17.9628L10.04 13.7458L9.44004 14.3458C9.30065 14.4851 9.19007 14.6505 9.11463 14.8325C9.03919 15.0146 9.00036 15.2097 9.00036 15.4068C9.00036 15.6038 9.03919 15.799 9.11463 15.981C9.19007 16.1631 9.30065 16.3285 9.44004 16.4678L11.54 18.5628C11.6861 18.7087 11.8606 18.8229 12.0528 18.8983C12.245 18.9737 12.4507 19.0085 12.657 19.0008H16.749C16.8816 19.0008 17.0088 18.9481 17.1026 18.8543C17.1964 18.7605 17.249 18.6334 17.249 18.5008C17.249 18.3681 17.1964 18.241 17.1026 18.1472C17.0088 18.0534 16.8816 18.0008 16.749 18.0008H14.218L14.256 17.9628Z" fill="#212121"/>
</svg>

<svg xmlns="http://www.w3.org/2000/svg" width="20" height="20"><path d="M8.731 17.174a2.5 2.5 0 0 1 0-3.536l4.9-4.9a2.5 2.5 0 0 1 3.536 0l.8.8a7.995 7.995 0 1 0-8.441 8.44l-.795-.804Zm7.737-7.734 2.095 2.1a1.5 1.5 0 0 1 0 2.122l-3.6 3.6-4.216-4.217 3.6-3.6a1.5 1.5 0 0 1 2.122 0l-.001-.005Zm-2.212 8.523-4.216-4.217-.6.6a1.5 1.5 0 0 0 0 2.122l2.1 2.095a1.502 1.502 0 0 0 1.117.438h4.092a.5.5 0 0 0 0-1h-2.531l.038-.038Z"/></svg>
